X:1

T:White Blanket, The [3]

T:An Súisín Bán

L:1/8

M:3/4

S:Bunting

K:Bb

c/d/|eG {G/4A/4}GF/G/ c>d|e/d/c/B/ GA/B/ cc|cB/4d/4f/ e/d/c/B/ FG/A/|

BB/c BB Bc/d/|eG {G/4A/4}GF/G/ c>d|e/d/c/B/ GA/B/ cc|cB/4d/4f/ e/d/c/B/ FG/A/|

BB/c/ BB Be/f/|gg gf/g/ _a/g/f/e/|c>d e/d/c/B/ GA/B/|cc cB/4d/4f/ e/d/c/B/|

FG/A/ BB Be/f/|gg gf/g/ _a/g/f/e/|c>d e/d/c/B/ GA/B/|cc c(3B/d/f/ e/d/c/B/|FG/A/ BB B||


 

WHITE BREAD AND BUTTER (Im Agus Aran Ban). Irish, Air (3/4 time, "gaily"). Ireland, County Antrim. A Major. Standard tuning (fiddle). AB. Source for notated version: fiddler and Chicago police Sergeant James O’Neill, Francis O’Neill’s collaborator [O’Neill]. O'Neill (Music of Ireland: 1850 Melodies), 1903; No. 402, p. 70.

